X:735
T: Pride of Glennanair HP
S: "Roche Collection of Traditional Irish Music" [II/12/215]
L: 1/8
M: 4/4
R: hornpipe
K: D
AG | FAGF EGFE | DFED CECA, | DCDE FEFG | AdcB A2 FG |
(3ABA (3GFG (3ABA (3GFG|(3ABA (3GFG FDEC | DEFG AdcB | AGEC D2 :|
(3ABc | d2 dd dfed | gfed edcA | dcde fefg | abc'b a2 fg |
(3aba (3gfg (3aba (3gfg|(3aba (3gfg fdec | defg ad'c'b|agec d2 :|
